src/assets/logos/axios.svg

<svg width="180" height="180" viewBox="0 0 180 180" fill="none" xmlns="http://www.w3.org/2000/svg">
<path d="M89.3369 80.2203V101.372L87.0316 103.229V85.6333H82.6923L89.3369 80.2203ZM169.29 76.9922C171.221 76.9922 173.014 77.2833 174.668 77.8655C176.26 78.4154 177.633 79.0335 178.787 79.7201L178.989 79.8419L176.599 84.3923C176.381 84.2139 176.073 84.0098 175.675 83.78L175.449 83.6521L175.205 83.5192L174.944 83.3811C174.209 82.9828 173.335 82.6457 172.324 82.3699C171.313 82.0635 170.271 81.9103 169.199 81.9103C166.318 81.9103 164.878 82.7223 164.878 84.3464C164.878 85.2963 165.399 85.9704 166.441 86.3688L166.678 86.4549L166.93 86.5423L167.198 86.6312L167.48 86.7215L167.777 86.8132L168.09 86.9063C168.143 86.9219 168.197 86.9376 168.252 86.9534L168.586 87.0486L168.936 87.1452L169.301 87.2432L169.681 87.3427L170.076 87.4435L170.697 87.5974L171.129 87.7017C172.937 88.1614 174.5 88.6823 175.817 89.2645C177.109 89.8224 178.106 90.5633 178.807 91.4871L178.897 91.6086C179.632 92.5586 180 93.8148 180 95.3776C180 97.2774 179.51 98.8096 178.529 99.974C177.579 101.108 176.323 101.935 174.76 102.456C173.197 102.946 171.512 103.191 169.704 103.191C167.62 103.191 165.552 102.9 163.499 102.318C161.544 101.764 159.797 101.015 158.259 100.071L158.029 99.928L160.511 95.1019C160.91 95.5002 161.569 95.9445 162.488 96.4348C163.438 96.9251 164.541 97.3388 165.797 97.6758C167.054 98.0129 168.387 98.1814 169.796 98.1814C172.615 98.1814 174.025 97.4307 174.025 95.9292C174.025 94.918 173.366 94.1979 172.048 93.7689L171.731 93.6577L171.399 93.5448L171.05 93.4301L170.686 93.3136L170.305 93.1953L169.909 93.0753C169.842 93.0551 169.774 93.0349 169.705 93.0146L169.285 92.8919L168.849 92.7675L168.397 92.6413L167.929 92.5134L167.198 92.3181L166.946 92.2521C164.311 91.578 162.35 90.72 161.063 89.6782C159.807 88.6057 159.179 87.0736 159.179 85.0818C159.179 83.3045 159.623 81.8184 160.511 80.6233C161.431 79.4283 162.656 78.5243 164.189 77.9115C165.751 77.2986 167.452 76.9922 169.29 76.9922ZM126.665 77.0381C128.61 77.0381 130.385 77.3923 131.99 78.1005L132.182 78.1872C133.836 78.9227 135.246 79.9185 136.41 81.1749C137.605 82.4006 138.524 83.7948 139.167 85.3576C139.811 86.9204 140.133 88.5137 140.133 90.1377C140.133 91.823 139.796 93.4472 139.122 95.0099C138.448 96.5421 137.497 97.921 136.271 99.1467C135.076 100.342 133.652 101.292 131.998 101.996C130.343 102.701 128.535 103.054 126.574 103.054C124.552 103.054 122.713 102.701 121.058 101.996C119.404 101.261 117.978 100.28 116.783 99.0547C115.588 97.7984 114.669 96.3889 114.025 94.8261C113.383 93.2633 113.06 91.6546 113.06 89.9999C113.06 88.3146 113.397 86.6905 114.071 85.1277C114.715 83.636 115.61 82.3118 116.756 81.1551L116.922 80.991C118.147 79.7653 119.587 78.8001 121.241 78.0953C122.896 77.3905 124.704 77.0381 126.665 77.0381ZM15.7655 77.176L26.9346 102.87H21.0513L18.4774 96.8485H8.50326L5.9293 102.87H0L11.2151 77.176H15.7655ZM48.665 77.176L55.7434 86.2768L62.8218 77.176H68.843L58.685 90.1838L68.5212 102.87H62.5L55.7434 94.1366L49.0327 102.87H42.9195L52.8017 90.1838L42.5978 77.176H48.665ZM93.5526 77.0584V94.2515H98.0135L91.252 99.8004V78.6601L93.5526 77.0584ZM126.574 82.0022C124.889 82.0022 123.448 82.4006 122.253 83.1973C121.088 83.994 120.199 85.0052 119.587 86.2309C118.974 87.4566 118.667 88.7283 118.667 90.0459C118.667 91.4248 118.99 92.7424 119.634 93.9987C120.276 95.2244 121.18 96.2203 122.344 96.9864C123.54 97.7524 124.964 98.1355 126.619 98.1355C128.304 98.1355 129.729 97.7371 130.894 96.9404C132.059 96.1131 132.947 95.0866 133.56 93.8608C134.172 92.6044 134.48 91.3175 134.48 89.9999C134.48 88.621 134.158 87.3186 133.515 86.093C132.871 84.8673 131.952 83.8867 130.756 83.1513C129.591 82.3852 128.198 82.0022 126.574 82.0022ZM13.5133 83.9327L9.74427 92.0223H17.1444L13.5133 83.9327Z" fill="#5A29E4"/>
</svg>

<svg width="180" height="180" fill="none" xmlns="http://www.w3.org/2000/svg"><path d="M89.337 80.22v21.152l-2.305 1.857V85.633h-4.34l6.645-5.413zm79.953-3.228c1.931 0 3.724.291 5.378.873 1.592.55 2.965 1.169 4.119 1.855l.202.122-2.39 4.55a7.144 7.144 0 0 0-.924-.612l-.226-.128-.244-.133-.261-.138c-.735-.398-1.609-.735-2.62-1.011a10.717 10.717 0 0 0-3.125-.46c-2.881 0-4.321.812-4.321 2.436 0 .95.521 1.624 1.563 2.023l.237.086.252.087.268.09.282.09.297.091.313.093.162.047.334.096.35.096.365.098.38.1.395.1.621.154.432.105c1.808.46 3.371.98 4.688 1.563 1.292.557 2.289 1.298 2.99 2.222l.09.122c.735.95 1.103 2.206 1.103 3.769 0 1.9-.49 3.432-1.471 4.596-.95 1.134-2.206 1.961-3.769 2.482-1.563.49-3.248.735-5.056.735-2.084 0-4.152-.291-6.205-.873-1.955-.554-3.702-1.303-5.24-2.247l-.23-.143 2.482-4.826c.399.398 1.058.843 1.977 1.333.95.49 2.053.904 3.309 1.24a15.38 15.38 0 0 0 3.999.506c2.819 0 4.229-.75 4.229-2.252 0-1.011-.659-1.731-1.977-2.16l-.317-.111-.332-.113-.349-.115-.364-.116-.381-.119-.396-.12a31.82 31.82 0 0 0-.204-.06l-.42-.123-.436-.124-.452-.127-.468-.128-.731-.195-.252-.066c-2.635-.674-4.596-1.532-5.883-2.574-1.256-1.072-1.884-2.604-1.884-4.596 0-1.777.444-3.264 1.332-4.459.92-1.195 2.145-2.099 3.678-2.712 1.562-.612 3.263-.919 5.101-.919zm-42.625.046c1.945 0 3.72.354 5.325 1.063l.192.086c1.654.736 3.064 1.731 4.228 2.988a13.062 13.062 0 0 1 2.757 4.183c.644 1.562.966 3.156.966 4.78 0 1.685-.337 3.31-1.011 4.872a13.505 13.505 0 0 1-2.851 4.137c-1.195 1.195-2.619 2.145-4.273 2.849-1.655.705-3.463 1.058-5.424 1.058-2.022 0-3.861-.353-5.516-1.058-1.654-.735-3.08-1.716-4.275-2.941a13.625 13.625 0 0 1-2.758-4.229A12.59 12.59 0 0 1 113.06 90c0-1.685.337-3.31 1.011-4.872a12.812 12.812 0 0 1 2.685-3.973l.166-.164a13.546 13.546 0 0 1 4.319-2.896c1.655-.704 3.463-1.057 5.424-1.057zm-110.9.138 11.17 25.694H21.05l-2.574-6.022H8.503L5.93 102.87H0l11.215-25.694h4.55zm32.9 0 7.078 9.1 7.079-9.1h6.021L58.685 90.184l9.836 12.686H62.5l-6.757-8.733-6.71 8.733h-6.114l9.883-12.686-10.204-13.008h6.067zm44.888-.118v17.193h4.46l-6.761 5.55V78.66l2.3-1.603zm33.021 4.944c-1.685 0-3.126.399-4.321 1.195a7.913 7.913 0 0 0-2.666 3.034 8.429 8.429 0 0 0-.92 3.815c0 1.379.323 2.696.967 3.953a7.93 7.93 0 0 0 2.71 2.987c1.196.766 2.62 1.15 4.275 1.15 1.685 0 3.11-.399 4.275-1.196 1.165-.827 2.053-1.853 2.666-3.08.612-1.256.92-2.543.92-3.86a8.29 8.29 0 0 0-.965-3.907 7.485 7.485 0 0 0-2.759-2.942c-1.165-.766-2.558-1.149-4.182-1.149zm-113.06 1.93-3.77 8.09h7.4l-3.63-8.09z" fill="#5A29E4"/></svg>
